icons/3_Generic/Plane.svg

<svg width="1024" height="1024" viewBox="0 0 1024 1024" fill="none" xmlns="http://www.w3.org/2000/svg">
<g clip-path="url(#clip0_3_425)">
<path d="M512 1024C794.77 1024 1024 794.77 1024 512C1024 229.23 794.77 0 512 0C229.23 0 0 229.23 0 512C0 794.77 229.23 1024 512 1024Z" fill="#8C72BD"/>
<path d="M666.089 464.1L744.709 390.13L745.049 389.79C775.649 359.19 775.649 309.57 745.049 278.97C714.449 248.37 664.829 248.37 634.229 278.97L633.889 279.31L559.919 357.93L339.739 277.88C336.939 276.859 333.906 276.659 330.996 277.302C328.086 277.945 325.419 279.405 323.309 281.51L260.629 344.19C254.489 350.29 254.449 360.21 260.539 366.35C261.289 367.11 262.119 367.78 262.999 368.37L435.169 483.13L390.589 527.69H334.379C330.229 527.69 326.239 529.35 323.309 532.29L260.629 594.97C254.499 601.079 254.479 611 260.579 617.13C262.081 618.638 263.874 619.826 265.849 620.62L364.109 659.8L403.289 757.9V758.21C406.579 766.19 415.699 770 423.689 766.75C425.729 765.92 427.579 764.67 429.099 763.07L491.549 700.62C494.539 697.73 496.259 693.78 496.329 689.62V633.41L540.909 588.83L655.649 761C660.459 768.2 670.189 770.13 677.389 765.32C678.239 764.75 679.039 764.1 679.759 763.37L742.439 700.69C746.739 696.38 748.149 689.98 746.069 684.26L666.099 464.08L666.089 464.1ZM671.159 727.71L556.399 555.54C553.789 551.64 549.579 549.11 544.909 548.64H543.369C539.219 548.64 535.229 550.3 532.299 553.24L469.619 615.92C466.679 618.84 465.019 622.8 464.999 626.94V683.15L423.729 724.42L390.739 642.02C389.954 640.047 388.776 638.254 387.277 636.75C385.778 635.246 383.99 634.062 382.019 633.27L299.619 600.31L340.909 559.04H397.089C401.249 559.04 405.249 557.39 408.189 554.44L470.869 491.76C476.979 485.63 476.969 475.71 470.839 469.6C470.109 468.88 469.319 468.22 468.459 467.65L296.309 352.86L338.409 310.73L558.999 390.91C564.889 393.05 571.479 391.48 575.769 386.91L656.739 300.98C676.069 283.65 705.799 285.28 723.129 304.61C739.169 322.51 739.129 349.63 723.029 367.48L637.099 448.45C634.868 450.549 633.301 453.256 632.59 456.236C631.879 459.216 632.056 462.339 633.099 465.22L713.279 685.68L671.149 727.7L671.159 727.71Z" fill="white"/>
</g>
<defs>
<clipPath id="clip0_3_425">
<rect width="1024" height="1024" fill="white"/>
</clipPath>
</defs>
</svg>

<svg width="1024" height="1024" fill="none" xmlns="http://www.w3.org/2000/svg"><g clip-path="url(#a)"><path d="M512 1024c282.77 0 512-229.23 512-512S794.77 0 512 0 0 229.23 0 512s229.23 512 512 512Z" fill="#8C72BD"/><path d="m666.089 464.1 78.62-73.97.34-.34c30.6-30.6 30.6-80.22 0-110.82-30.6-30.6-80.22-30.6-110.82 0l-.34.34-73.97 78.62-220.18-80.05a15.673 15.673 0 0 0-16.43 3.63l-62.68 62.68c-6.14 6.1-6.18 16.02-.09 22.16.75.76 1.58 1.43 2.46 2.02l172.17 114.76-44.58 44.56h-56.21c-4.15 0-8.14 1.66-11.07 4.6l-62.68 62.68c-6.13 6.109-6.15 16.03-.05 22.16a15.71 15.71 0 0 0 5.27 3.49l98.26 39.18 39.18 98.1v.31c3.29 7.98 12.41 11.79 20.4 8.54 2.04-.83 3.89-2.08 5.41-3.68l62.45-62.45c2.99-2.89 4.71-6.84 4.78-11v-56.21l44.58-44.58L655.649 761c4.81 7.2 14.54 9.13 21.74 4.32.85-.57 1.65-1.22 2.37-1.95l62.68-62.68c4.3-4.31 5.71-10.71 3.63-16.43l-79.97-220.18-.01.02Zm5.07 263.61-114.76-172.17c-2.61-3.9-6.82-6.43-11.49-6.9h-1.54c-4.15 0-8.14 1.66-11.07 4.6l-62.68 62.68c-2.94 2.92-4.6 6.88-4.62 11.02v56.21l-41.27 41.27-32.99-82.4a15.674 15.674 0 0 0-8.72-8.75l-82.4-32.96 41.29-41.27h56.18c4.16 0 8.16-1.65 11.1-4.6l62.68-62.68c6.11-6.13 6.1-16.05-.03-22.16-.73-.72-1.52-1.38-2.38-1.95l-172.15-114.79 42.1-42.13 220.59 80.18c5.89 2.14 12.48.57 16.77-4l80.97-85.93c19.33-17.33 49.06-15.7 66.39 3.63 16.04 17.9 16 45.02-.1 62.87l-85.93 80.97a15.689 15.689 0 0 0-4 16.77l80.18 220.46-42.13 42.02.01.01Z" fill="#fff"/></g><defs><clipPath id="a"><path fill="#fff" d="M0 0h1024v1024H0z"/></clipPath></defs></svg>
